X: 6
T: The Ballydesmond
R: polka
M: 2/4
L: 1/8
K: Dmix
|: A>B AG | EF GE | A>B AG | Ad d/e/d/^c/ |
A>B AG | EF GE | AB cE | ED D2 :|
|: ed d2 | ed c2 | ed ^cd | ea a/b/a/g/ |
[1 ed d2 | ed cB | AB ^cd | ef g>f :|
[2 e/f/g dB | ^ce d>c | AB cE | ED D2 |]


Tune 298	Setting 13050

